src/assets/site/social_icons/telegram.svg

<?xml version="1.0" encoding="UTF-8"?>
<svg width="40px" height="40px" viewBox="0 0 44 44" version="1.1" xmlns="http://www.w3.org/2000/svg" xmlns:xlink="http://www.w3.org/1999/xlink">
    <!-- Generator: Sketch 48.2 (47327) - http://www.bohemiancoding.com/sketch -->
    <title>send-light</title>
    <desc>Created with Sketch.</desc>
    <defs></defs>
    <g id="social-icons" stroke="none" stroke-width="1" fill="none" fill-rule="evenodd" transform="translate(-280.000000, -160.000000)">
        <g id="send-light" transform="translate(280.000000, 160.000000)">
            <rect id="Rectangle" x="0" y="0" width="44" height="44"></rect>
            <circle id="Oval" stroke="#343A40" stroke-width="2" cx="22" cy="22" r="21"></circle>
            <path d="M30.6562954,11.1475816 C30.9263504,11.3439852 31.0368257,11.6058527 30.9877248,11.9331921 L27.845283,30.7878429 C27.8043656,31.0251639 27.6734318,31.2092895 27.4524778,31.3402253 C27.337909,31.4056931 27.2110669,31.4384266 27.0719477,31.4384266 C26.9819294,31.4384266 26.8837291,31.4179682 26.7773438,31.3770508 L20.3083327,28.7378907 L16.6503341,32.7518691 C16.5030314,32.9237222 16.3107224,33.0096475 16.0734014,33.0096475 C15.9588326,33.0096475 15.864724,32.9932808 15.7910726,32.9605468 C15.6355865,32.9032625 15.5128361,32.807108 15.4228177,32.6720805 C15.3327994,32.537053 15.2877909,32.3877067 15.2877909,32.224037 L15.2877909,26.6756632 L9.49391386,24.3065567 C9.19112498,24.1919879 9.02745777,23.9669455 9.00290732,23.6314227 C8.97835688,23.3122669 9.10929064,23.0708577 9.39571255,22.9071881 L29.8215843,11.1230313 C30.1080062,10.9511781 30.3862405,10.9593615 30.6562954,11.1475816 L30.6562954,11.1475816 Z M26.4581896,29.5480514 L29.1710007,13.3080104 L11.5684165,23.4595704 L15.6928713,25.1412678 L26.2863373,17.2974384 L20.4188092,27.0807436 L26.4581896,29.5480514 Z" id="Shape" fill="#343A40"></path>
        </g>
    </g>
</svg>

<svg width="44" height="44" xmlns="http://www.w3.org/2000/svg"><g fill="none" fill-rule="evenodd"><path d="M0 0h44v44H0z"/><circle stroke="#343A40" stroke-width="2" cx="22" cy="22" r="21"/><path d="M30.66 11.15c.27.2.38.46.33.78L27.85 30.8a.77.77 0 0 1-.78.65.83.83 0 0 1-.3-.06l-6.46-2.64-3.66 4.01a.72.72 0 0 1-.58.26.7.7 0 0 1-.28-.05.74.74 0 0 1-.37-.29.79.79 0 0 1-.13-.45v-5.54l-5.8-2.37a.72.72 0 0 1-.49-.68.72.72 0 0 1 .4-.72l20.42-11.79a.71.71 0 0 1 .84.03zm-4.2 18.4l2.71-16.24-17.6 10.15 4.12 1.68 10.6-7.84-5.87 9.78 6.04 2.47z" fill="#343A40"/></g></svg>
